X: 5
T: The Sally Gardens
R: reel
M: 4/4
L: 1/8
K: Dmaj
|: [A,A][B,B] |\
D2 [A,A]D F2 DF | AFBF AFEF | A/B/A FA BddB | AFEF D[B,B][A,A][B,FB] |
D2 A,D BD D/E/F | AFBF AF E2 | A2 FA B/c/d dB | AFED D2 :|
|: E/F/G |Ad-dc d/e/d AB | d/e/d fd edcd | Be-e^d e2 Bd | edfd edBG |
Addc d2 Ad | d2 fd edBG | A2 F/G/A Bd-dB | AFEF D2 :|


Tune 98	Setting 12655

